X:287
%%etbk:tnset id:87,pos:2,rep:3x,ant:
%%etbk:wsite http://www.thesession.org/tunes/display/451
%%etbk:pldat 2014-05-20T17:15,2014-04-26T16:43,2014-03-25T17:37,2014-03-23T16:21,2014-03-15T15:22,2014-02-07T17:07,2013-11-24T14:57,2013-05-13T19:14
T: Brendan Tonra's
Z: Piano Box Version by Martin Fleischmann
H: Created 2013-02-19 /  Last Modified 2013-02-19
M: 6/8
L: 1/8
R: jig
K: Dmaj
E|: "D"!3!F!2!F!3!F !5!A!3!F!1!E | !3!E!2!D!1!B, !1!A,!1!B,!2!D | !4!F!1!E!2!F !3!GFG | "A"!4!AB!2!F !4!A!3!F!2!E |
"D"!3!F!2!F!3!F !5!A!3!F!1!E | !3!E!2!D!1!B, !1!A,!1!B,!2!D | !4!F!1!E!2!F "A"!3!GFG | "D"!4!A!2!F!1!D D3:|
!4!e |: "D"!5!f2!3!d {e}dcd | "A"!4!ed!2!c !1!Bc!3!d | "D" !5!f2d {e}!3!dcd | "A"!1!ABA !1!A!3!de |
"D"!5!f2!3!d {e}dcd | !4!ed!2!c !1!B!2!c!1!d | !3!f!5!af "A"!4!g!1!e!2!c | "D"!3!d!5!fe !3!d3:|


